X:322021
T: Sleepy Maggie (The Session versions)
C: Traditional (1760 Oswald)
B: The Session.org
H:
O:The Session.org
Z:Kevin Fraser
Q:1/4=120
K:HP
M:2/2
L:1/8
R:Reel
U: R = ///
U: r = //
U: V = !accent!
V:M gstem=up stem=down name="Melody" sname="Melody" 
V:H gstem=up stem=down name="Harmony" sname="Harmony"
V:C gstem=up stem=down name="C-Harmony" sname="C-Harmony"
V:S gstem=up stem=down dyn=up stafflines=1 clef=perc middle=G name="Snare" sname="Snare" sname="Snare"
V:B gstem=up stem=down clef=none dyn=up name="Bass" sname="Bass"
V:T gstem=up stem=down clef=none dyn=up name="Tenor" sname="Tenor"
V:BB gstem=up stem=down name="Brass Bass" sname="ABCD-C" transpose=-1  octave=-1 clef=bass
V:BC gstem=up stem=down name="Brass Chord" sname="ABCD-D" transpose=-1
V:BD gstem=up stem=down name="Brass Chord 2" sname="ABCD-B" transpose=-1
V:P gstem=up stem=down name="Piano" octave=-1
I:MIDI=program 110
%%MIDI gracedivider 4
% %score {M S B T}
%%MIDI program 109 #bagpipes
%%MIDI vol 100
P: thesession.org 4
[V:M]e2Aa edBd|e2 e/f/g edBd|e2Aa edBd|efge dGBd:|
eA~A2 edBd|eA~A2 BGBd|eA~A2 edBd|efge dGBd:|
P: thesession.org 5
e2 cA eA B/c/d|e2 cA dG B/c/d|e2 cA eA B/c/d|edge dG B/c/d:|
|:eAcA eA B/c/d|eAcA dG B/c/d|eAcA eA B/c/d|edge dG B/c/d:|
P: thesession.org 6
|: e2 Aa edB<d | e2 g2 B<GB<d | e2 Aa edB<d | e>fg>e d<GB<d :|
|: eA A2 eAB<d | eA A2 B<GB<d | eA A2 eAB<d | e>fg>e d<GB<d :|
P: thesession.org 8
|: f2Ba fBde | f2Ba eAce | f2Ba fBde | fgaf eAce :|
|: fBdB fBde | fBdB eAce | fBdB fBde | fgaf eAce :|
P: thesession.org Oneil (1903)
f2de fBde|f2df eAce|f2de fBde|fgaf eAce:|
|:fBdB fBde|fBdB eAce|1 fBdB fBde|fgaf eAce:|2 dcBc defg|abaf eAce||
|:fBbB fBde|fBbB aAce|fBbB aBgB|fBgB aAce:|
P: Ryan's Mammoth Collection (1883)
f2de fBde|f2df eAce|f2de fBde|fgaf eAce:|
|:fBdB fBde|fBdB eAce|fBdB fBde|fgaf eAce:|
|:f2db Bfde|f2db Aece|f2db Bfde|fbaf eAce:|
|:fBbB fBde|fBbB aAce|fBbB aBgB|fBgB aAce:|
P: Lionel Winship (1833)
e2cd eAcd|e2ce dGBd|e2cd eAcd|efge dGBd:|
|:eAcA eAcd|eAcA dGBd|eAcA eAcd|efge dGBd:|
|:e2ca Aecd|e2ca GdBd|e2ca Aecd|eage dGBd:|
|:eAaA eAcd|eAaA gGBd|eAaA gAfA|eAfA gGBd:|
P: Cape Breton
|:fB B/B/B fBce | fB B/B/B eAce | fB B/B/B fBce | fgaf eAce:|
|:f2 f/a/b fBce | f2 f/g/a eAce | f2 f/a/b fBce | fgaf eAce:|
w: Crucially, it has an alternate B-part which seems to be played every other time instead of the B-part above:
|:fB B/B/B bB B/B/B | aB B/B/B eAce | fBbB aBgB | fgaf eAce:|


